assets/icon-question-mark.svg

<svg
  class="icon icon-accordion icon-question-mark"

  focusable="false"
  xmlns="http://www.w3.org/2000/svg"


  viewBox="0 0 20 20"
>
  <path d="M9.56285 11.959C9.36021 11.959 9.19593 11.7947 9.19593 11.5921V11.4654C9.19266 10.9745 9.27959 10.5556 9.51194 10.162C9.73885 9.77751 10.0875 9.44653 10.5519 9.09905C10.9668 8.78804 11.2183 8.53255 11.3688 8.28844C11.5132 8.05415 11.577 7.80994 11.577 7.49433V7.48101C11.577 6.58737 10.9199 5.94963 10.0093 5.94963C9.14693 5.94963 8.48176 6.556 8.39691 7.55858C8.38999 7.64041 8.35581 7.71754 8.29986 7.77765L8.29366 7.78431C8.22548 7.85755 8.13034 7.89977 8.03028 7.90119L7.55903 7.90785C7.43278 7.90963 7.31449 7.84638 7.24586 7.7404C7.19061 7.65507 7.1738 7.55171 7.19715 7.45492C7.30916 5.93601 8.41577 4.74287 10.0217 4.74287C11.6246 4.74287 12.8131 5.91906 12.8131 7.46103V7.47435C12.8131 7.98614 12.6995 8.4388 12.4473 8.86135C12.199 9.27731 11.8283 9.64397 11.3455 10.0059L11.3431 10.0077C10.929 10.313 10.7058 10.5344 10.5791 10.746C10.4596 10.9455 10.4072 11.1677 10.4072 11.5174V11.5921C10.4072 11.7947 10.2429 11.959 10.0403 11.959H9.56285ZM10.7049 14.3815C10.7049 14.8554 10.3695 15.2613 9.86668 15.2613C9.36996 15.2613 9.02231 14.862 9.02231 14.3815C9.02231 13.9045 9.37305 13.5084 9.86668 13.5084C10.3665 13.5084 10.7049 13.911 10.7049 14.3815Z"/>
  <path d="M18.5 10C18.5 14.6944 14.6944 18.5 10 18.5C5.30558 18.5 1.5 14.6944 1.5 10C1.5 5.30558 5.30558 1.5 10 1.5C14.6944 1.5 18.5 5.30558 18.5 10ZM10 17.4967C14.1403 17.4967 17.4967 14.1403 17.4967 10C17.4967 5.85971 14.1403 2.50335 10 2.50335C5.85971 2.50335 2.50335 5.85971 2.50335 10C2.50335 14.1403 5.85971 17.4967 10 17.4967Z"/>
</svg>

<svg xmlns="http://www.w3.org/2000/svg" class="icon icon-accordion icon-question-mark" viewBox="0 0 20 20"><path d="M9.563 11.959a.367.367 0 0 1-.367-.367v-.127c-.003-.49.084-.91.316-1.303.227-.384.575-.715 1.04-1.063.415-.311.666-.566.817-.81a1.43 1.43 0 0 0 .208-.795v-.013c0-.894-.657-1.531-1.568-1.531-.862 0-1.527.606-1.612 1.609a.37.37 0 0 1-.097.219l-.006.006a.37.37 0 0 1-.264.117l-.471.007a.367.367 0 0 1-.362-.453c.112-1.519 1.219-2.712 2.825-2.712 1.603 0 2.791 1.176 2.791 2.718v.013c0 .512-.114.965-.366 1.387-.248.416-.619.783-1.101 1.145l-.003.002c-.414.305-.637.526-.764.738-.12.2-.172.422-.172.771v.075a.367.367 0 0 1-.367.367zm1.142 2.423c0 .473-.335.88-.838.88-.497 0-.845-.4-.845-.88 0-.477.351-.874.845-.874.5 0 .838.403.838.874"/><path d="M18.5 10a8.5 8.5 0 1 1-17 0 8.5 8.5 0 0 1 17 0M10 17.497a7.497 7.497 0 1 0 0-14.994 7.497 7.497 0 0 0 0 14.994"/></svg>
